svg/u1f69d.svg

<svg viewBox="0 0 128 128" xmlns="http://www.w3.org/2000/svg">
  <g>
    <rect height="36.13" fill="#82AEC0" width="119.99" x="4" y="63.96"/>
    <rect height="3.53" fill="#757575" width="119.82" x="4.18" y="69.37"/>
    <polygon points="4,99.54 4,102.48 4,102.48 11.15,111.23 11.15,124 37.1,124 37.1,111.23 44.25,102.48 83.74,102.48 90.89,111.23 90.89,124 116.85,124 116.85,111.23 124,102.48 124,99.54 " fill="#607D8B"/>
    <path d="M112.74,124H94.99v-7.89c0-2.7,2.19-4.89,4.89-4.89h7.96c2.7,0,4.89,2.19,4.89,4.89V124z" fill="#82AEC0"/>
    <path d="M33,124H15.25v-7.89c0-2.7,2.19-4.89,4.89-4.89h7.96c2.7,0,4.89,2.19,4.89,4.89V124z" fill="#82AEC0"/>
  </g>
  <g>
    <path d="M13.51,64c0,0,9.91,2.05,15.06,9.04c4.17,5.65,6.37,9.45,17.48,9.45c2.95,0,77.95,0,77.95,0V63.95 L13.51,64z" fill="#455A64"/>
    <path d="M28.96,62.51l-11.77-5.86c-3.43-2.23-4.64-4.38-4.5-7.14c0.13-2.66,1.26-5.91,2.46-9.77 C19.52,25.69,29.73,4,53.75,4s70.24,0,70.24,0l0,58.15L28.96,62.51z" fill="#E0E0E0"/>
    <path d="M28.68,62.51L124,62.15V49.51H64.66c-4.75,0-8.03-5.06-6.41-9.84c2.96-8.76,9.08-17.97,20.82-17.97 c16.68,0,44.93,0,44.93,0V11.42c0,0-37.59,0-50.86,0c-13.38,0-22.27,14.59-26.88,26.5c-2.73,7.04-9.19,11.59-16.3,11.59H12.69 c-0.15,2.08,0.46,3.93,2.33,5.68C15.54,55.69,28.68,62.51,28.68,62.51z" fill="#F44336"/>
    <path d="M13.51,53.34c0,0,0.82,1.87,4.11,3.6c5.44,2.87,11.06,5.67,11.06,5.67L124,62.25v-5.11 c0,0-83.33,0-90.9,0S13.51,53.34,13.51,53.34z" fill="#C62828"/>
    <path d="M124,79.17H48.52c-10.26,0-14.22-4.05-17.27-11.29c-0.74-1.76-2.67-5.62-2.67-5.62v0H124V79.17z" fill="#E0E0E0"/>
    <path d="M36.1,70.67c-0.69-1.08-1.42-2.64-1.94-3.84c-0.36-0.83,0.21-1.78,1.06-1.78l88.77,0v-2.8H27.97 c0,0,2.25,3.15,3.27,5.62c2.92,7.04,6.79,11.03,16.38,11.27C42.75,77.96,39.18,75.45,36.1,70.67z" fill="#BDBDBD"/>
    <path d="M100.38,67.55l-57.54,1.75c0,0-5.12,0.15-5.83-1.83c-0.54-1.5,0.44-2.41,3.83-2.41 s42.92,0.22,42.92,0.22S94.85,65.33,100.38,67.55z" fill="#FFFFFF"/>
    <path d="M124,36.97V17.43l-69.47,0.58c-8.91,7.2-12.03,13.67-14.47,18.95H124z" fill="#BAE2FD"/>
    <path d="M124,16.62H55.52c-6.29,0-13.76,13.07-16.97,19.33c-0.75,1.47,0.24,3.26,1.8,3.26l83.59,0v0H124 V16.62z M43.26,36.2c-0.57,0-1-0.24-0.68-1.18c0.19-0.55,5.12-10.6,10.78-14.24c0.51-0.33,1.16,0.06,1.16,0.69v13.91 c0,0.45-0.34,0.81-0.76,0.81H43.26z M56.4,35.38V20.44c0-0.45,0.34-0.81,0.76-0.81h19.12c0.42,0,0.76,0.36,0.76,0.81v14.94 c0,0.45-0.34,0.81-0.76,0.81H57.16C56.74,36.2,56.4,35.83,56.4,35.38z M78.91,35.38V20.44c0-0.45,0.34-0.81,0.76-0.81H98.8 c0.42,0,0.76,0.36,0.76,0.81v14.94c0,0.45-0.34,0.81-0.76,0.81H79.67C79.25,36.2,78.91,35.83,78.91,35.38z M121.31,36.2h-19.12 c-0.42,0-0.76-0.36-0.76-0.81V20.44c0-0.45,0.34-0.81,0.76-0.81h19.12c0.42,0,0.76,0.36,0.76,0.81v14.94 C122.06,35.83,121.73,36.2,121.31,36.2z" fill="#37474F"/>
    <path d="M27.4,34.99c9.92-14.91,17.9-22.8,17.9-22.8l-12.45-0.05L30.37,13 c-8.15,7.58-12.65,18.48-15.22,26.75C15.14,39.75,22.7,42.05,27.4,34.99z" fill="#BAE2FD"/>
    <path d="M29.22,36.2C39.16,20.31,47.15,13.05,50.55,11c0.31-0.18,0.5-0.87-0.61-0.87H34.05 c-1.16,0.83-2.59,1.84-3.69,2.87l11.07,0.07c0.47,0,0.58,0.58,0.24,0.92c-3.12,3.19-6.09,5.64-14.32,17.95 c-2.51,3.76-5.05,4.32-7.07,4.74c-1.16,0.24-2.93,0.3-4.24,0.31c-1.1,2.85-2.71,8.76-2.71,8.76C16.36,46.06,22.85,46.38,29.22,36.2 z" fill="#37474F"/>
    <path d="M124,6.22V4c0,0-48.19,0-70.52,0c-6.49,0-10.49,1.63-10.49,1.63L124,6.22z" fill="#BDBDBD"/>
    <path d="M21.44,38.4c-0.71-0.79-2.23-0.57-3.39,0.48c-1.16,1.05-1.52,2.54-0.81,3.33 c0.71,0.79,2.23,0.57,3.39-0.48C21.79,40.68,22.15,39.19,21.44,38.4z" fill="#FFCA28"/>
  </g>
</svg>

<svg viewBox="0 0 128 128" xmlns="http://www.w3.org/2000/svg">
  <defs/>
  <path d="M4,63.96 L123.99,63.96 L123.99,100.09 L4,100.09 L4,63.96 Z" fill="#82AEC0"/>
  <path d="M4.18,69.37 L124,69.37 L124,72.9 L4.18,72.9 L4.18,69.37 Z" fill="#757575"/>
  <path d="M4,99.54 L4,102.48 L4,102.48 L11.15,111.23 L11.15,124 L37.1,124 L37.1,111.23 L44.25,102.48 L83.74,102.48 L90.89,111.23 L90.89,124 L116.85,124 L116.85,111.23 L124,102.48 L124,99.54 Z" fill="#607D8B"/>
  <path d="M112.74,124 L94.99,124 L94.99,116.11 C94.99,113.41 97.18,111.22 99.88,111.22 L107.84,111.22 C110.54,111.22 112.73,113.41 112.73,116.11 L112.73,124 Z" fill="#82AEC0"/>
  <path d="M33,124 L15.25,124 L15.25,116.11 C15.25,113.41 17.44,111.22 20.14,111.22 L28.1,111.22 C30.8,111.22 32.99,113.41 32.99,116.11 L32.99,124 Z" fill="#82AEC0"/>
  <path d="M13.51,64 C13.51,64 23.42,66.05 28.57,73.04 C32.74,78.69 34.94,82.49 46.05,82.49 C49,82.49 124,82.49 124,82.49 L124,63.95 L13.51,64 Z" fill="#455A64"/>
  <path d="M28.96,62.51 L17.19,56.65 C13.76,54.42 12.55,52.27 12.69,49.51 C12.82,46.85 13.95,43.6 15.15,39.74 C19.52,25.69 29.73,4 53.75,4 C77.77,4 123.99,4 123.99,4 L123.99,62.15 L28.96,62.51 Z" fill="#E0E0E0"/>
  <path d="M28.68,62.51 L124,62.15 L124,49.51 L64.66,49.51 C59.91,49.51 56.63,44.45 58.25,39.67 C61.21,30.91 67.33,21.7 79.07,21.7 C95.75,21.7 124,21.7 124,21.7 L124,11.42 C124,11.42 86.41,11.42 73.14,11.42 C59.76,11.42 50.87,26.01 46.26,37.92 C43.53,44.96 37.07,49.51 29.96,49.51 L12.69,49.51 C12.54,51.59 13.15,53.44 15.02,55.19 C15.54,55.69 28.68,62.51 28.68,62.51 Z" fill="#F44336"/>
  <path d="M13.51,53.34 C13.51,53.34 14.33,55.21 17.62,56.94 C23.06,59.81 28.68,62.61 28.68,62.61 L124,62.25 L124,57.14 C124,57.14 40.67,57.14 33.1,57.14 C25.53,57.14 13.51,53.34 13.51,53.34 Z" fill="#C62828"/>
  <path d="M124,79.17 L48.52,79.17 C38.26,79.17 34.3,75.12 31.25,67.88 C30.51,66.12 28.58,62.26 28.58,62.26 L28.58,62.26 L124,62.26 L124,79.17 Z" fill="#E0E0E0"/>
  <path d="M36.1,70.67 C35.41,69.59 34.68,68.03 34.16,66.83 C33.8,66 34.37,65.05 35.22,65.05 L123.99,65.05 L123.99,62.25 L27.97,62.25 C27.97,62.25 30.22,65.4 31.24,67.87 C34.16,74.91 38.03,78.9 47.62,79.14 C42.75,77.96 39.18,75.45 36.1,70.67 Z" fill="#BDBDBD"/>
  <path d="M100.38,67.55 L42.84,69.3 C42.84,69.3 37.72,69.45 37.01,67.47 C36.47,65.97 37.45,65.06 40.84,65.06 C44.23,65.06 83.76,65.28 83.76,65.28 C83.76,65.28 94.85,65.33 100.38,67.55 Z" fill="#FFFFFF"/>
  <path d="M124,36.97 L124,17.43 L54.53,18.01 C45.62,25.21 42.5,31.68 40.06,36.96 L124,36.96 Z" fill="#BAE2FD"/>
  <path d="M124,16.62 L55.52,16.62 C49.23,16.62 41.76,29.69 38.55,35.95 C37.8,37.42 38.79,39.21 40.35,39.21 L123.94,39.21 L123.94,39.21 L124,39.21 L124,16.62 Z M43.26,36.2 C42.69,36.2 42.26,35.96 42.58,35.02 C42.77,34.47 47.7,24.42 53.36,20.78 C53.87,20.45 54.52,20.84 54.52,21.47 L54.52,35.38 C54.52,35.83 54.18,36.19 53.76,36.19 L43.26,36.19 Z M56.4,35.38 L56.4,20.44 C56.4,19.99 56.74,19.63 57.16,19.63 L76.28,19.63 C76.7,19.63 77.04,19.99 77.04,20.44 L77.04,35.38 C77.04,35.83 76.7,36.19 76.28,36.19 L57.16,36.19 C56.74,36.2 56.4,35.83 56.4,35.38 Z M78.91,35.38 L78.91,20.44 C78.91,19.99 79.25,19.63 79.67,19.63 L98.8,19.63 C99.22,19.63 99.56,19.99 99.56,20.44 L99.56,35.38 C99.56,35.83 99.22,36.19 98.8,36.19 L79.67,36.19 C79.25,36.2 78.91,35.83 78.91,35.38 Z M121.31,36.2 L102.19,36.2 C101.77,36.2 101.43,35.84 101.43,35.39 L101.43,20.44 C101.43,19.99 101.77,19.63 102.19,19.63 L121.31,19.63 C121.73,19.63 122.07,19.99 122.07,20.44 L122.07,35.38 C122.06,35.83 121.73,36.2 121.31,36.2 Z" fill="#37474F"/>
  <path d="M27.4,34.99 C37.32,20.08 45.3,12.19 45.3,12.19 L32.85,12.14 L30.37,13 C22.22,20.58 17.72,31.48 15.15,39.75 C15.14,39.75 22.7,42.05 27.4,34.99 Z" fill="#BAE2FD"/>
  <path d="M29.22,36.2 C39.16,20.31 47.15,13.05 50.55,11 C50.86,10.82 51.05,10.13 49.94,10.13 L34.05,10.13 C32.89,10.96 31.46,11.97 30.36,13 L41.43,13.07 C41.9,13.07 42.01,13.65 41.67,13.99 C38.55,17.18 35.58,19.63 27.35,31.94 C24.84,35.7 22.3,36.26 20.28,36.68 C19.12,36.92 17.35,36.98 16.04,36.99 C14.94,39.84 13.33,45.75 13.33,45.75 C16.36,46.06 22.85,46.38 29.22,36.2 Z" fill="#37474F"/>
  <path d="M124,6.22 L124,4 C124,4 75.81,4 53.48,4 C46.99,4 42.99,5.63 42.99,5.63 L124,6.22 Z" fill="#BDBDBD"/>
  <path d="M21.44,38.4 C20.73,37.61 19.21,37.83 18.05,38.88 C16.89,39.93 16.53,41.42 17.24,42.21 C17.95,43 19.47,42.78 20.63,41.73 C21.79,40.68 22.15,39.19 21.44,38.4 Z" fill="#FFCA28"/>
</svg>
